X:1
T:Glorious Freedom
T:Glorious Freedom
T:Alfred Judson
T:Haldor Lillenas
T:PUBLIC DOMAIN
T:PUBLIC DOMAIN
C:Alfred Judson
Z:Haldor Lillenas
Z:PUBLIC DOMAIN
%%score ( 1 2 ) ( 3 4 )
L:1/8
Q:3/8=60
M:9/8
K:Eb
V:1 treble nm="SOPRANO ALTO"
V:2 treble 
V:3 bass nm="TENOR BASS"
V:4 bass 
V:1
 [GB] [Ac] [GB] | [EG]3 E3 [DF] [CE][DF] | [EG]3 [GB]3 [GB] [Ac] [GB] | [EG]3 E3 [EG] [EF]E | %4
w: 1.~Once I was|bound by sin’s gall- ing|fet- ters, Chained like a|slave, I strug- gled in|
w: 2.~Free- dom from|all the car- nal af-|fec- tions, Free- dom from|en- vy, ha- tred and|
w: 3.~Free- dom from|pride and all sin- ful|fol- lies, Free- dom from|love and glit- ter of|
w: 4.~Free- dom from|fear with all of its|tor- ments, Free- dom from|care with all of its|
 [DF]6 | [AB] [Ac] [AB] | [EG]3 E3 [DF] [CE][DF] | [EG]3 [GB]3 [ce] [Bd] [Ac] | %8
w: vain;|But I re-|ceived a glo- ri- ous|free- dom, When Je- sus|
w: strife;|Free- dom from|vain and world- ly am-|bi- tions, Free- dom from|
w: gold;|Free- dom from|e- vil, tem- per, and|an- ger, Glo- ri- ous|
w: pain;|Free- dom in|Christ, my bless- ed Re-|deem- er, He who has|
 [GB]3 [EG]3 [DF] [CE] [DF] | [B,E]6 ||"^Refrain" [Ge] [Ge] [Ge] | [Ge]3 [GB]3 [Be] [Be] [Be] | %12
w: broke my fet- ters in|twain.|Glo- ri- ous|free- dom, won- der- ful|
w: all that sad- dened my|life.|||
w: free- dom, rap- ture un-|told.|||
w: rent my fet- ters in|twain.|||
 [ce]3 [Ac]3 [GB] [Ac] [GB] | [EG]3 E3 [EG] [EF]E | [DF]6 | [AB] [Ac] [AB] | %16
w: free- dom, No more in|chains of sin I re-|pine!|Je- sus the|
w: ||||
w: ||||
w: ||||
 [EG]3 E3 [DF] [CE][DF] | [EG]3 [GB]3 [ce] [Bd] [Ac] | [GB]3 [EG]3 [DF] [CE] [DF] | [B,E]6 |] %20
w: glo- rious E- man- ci-|pa- tor, Now and for-|ev- er He shall be|mine.|
w: ||||
w: ||||
w: ||||
V:2
 x3 | z3 E3 z3 | x9 | z3 E3 z2 E | x6 | x3 | z3 E3 z3 | x9 | x9 | x6 || x3 | x9 | x9 | z3 E3 z2 E | %14
 x6 | x3 | z3 E3 z3 | x9 | x9 | x6 |] %20
V:3
 [E,E] [E,E] [E,E] | [E,B,]3 [E,G,]3 [B,,A,] [C,G,] [B,,B,] | [E,B,]3 [E,E]3 [E,E] [E,E] [E,E] | %3
 [E,B,]3 [E,G,]3 [F,=A,] [F,A,] [F,A,] | [B,,B,]6 | [B,,D] [B,,D] [B,,D] | %6
 [E,B,]3 [E,G,]3 [B,,A,] [C,G,] [B,,B,] | [E,B,]3 [E,E]3 [A,E] [A,E] [A,E] | %8
 [B,E]3 B,3 [B,,A,] [C,G,][B,,A,] | [E,G,]6 || [E,B,] [E,B,] [E,B,] | %11
 [E,B,]3 [E,E]3 [G,E] [G,E] [G,E] | [A,E]3 [A,E]3 [E,E] [E,E] [E,E] | %13
 [E,B,]3 [E,G,]3 [F,=A,] [F,A,] [F,A,] | [B,,B,]6 | [B,,D] [B,,D] [B,,D] | %16
 [E,B,]3 [E,G,]3 [B,,A,] [C,G,] [B,,B,] | [E,B,]3 [E,E]3 [A,E] [A,E] [A,E] | %18
 [B,E]3 B,3 [B,,A,] [C,G,][B,,A,] | [E,G,]6 |] %20
V:4
 x3 | x9 | x9 | x9 | x6 | x3 | x9 | x9 | z3 B,3 z3 | x6 || x3 | x9 | x9 | x9 | x6 | x3 | x9 | x9 | %18
 z3 B,3 z3 | x6 |] %20

